app/dist/common/images/enlink-midstream.svg

<svg height="18" width="18" xmlns="http://www.w3.org/2000/svg"><path d="m0 0h18v18h-18z" fill="#bd8b40"/><path d="m9.016 4 4.024 4.946-3.97 5.054h2.948l3.982-5.054-3.94-4.946h-3.043zm-3.076 0-3.94 4.946 3.982 5.054h2.948l-3.056-4h3.12v-1.996h-3.172l3.151-4.004z"/></svg>

<!-- by TradingView --><svg width="18" height="18" xmlns="http://www.w3.org/2000/svg"><path fill="#BD8B40" d="M0 0h18v18H0z"/><path d="M9.016 4l4.024 4.946L9.07 14h2.948L16 8.946 12.06 4H9.017zM5.94 4L2 8.946 5.982 14H8.93l-3.056-4h3.12V8.004H5.822L8.973 4H5.94z" fill="#000"/></svg>
